X: 31735
T: Pat Mahon's
R: jig
M: 6/8
K: Eminor
|:e3 dBA|~g3 agf|ege dBA|~B3 GED|
eBe dBA|~g3 agf|e/f/ge dBA|1 Be^d eBd:|2 Be^d e2 B||
|:egb egb|egb bge|dfa dfa|dfa agf|
~g3 aga|bag fga|bge dBA|Be^d e2 B:|

